icons/svg/shields/h_topo_wood_shield.svg

<?xml version="1.0" encoding="UTF-8" standalone="no"?>
<svg
   xmlns:dc="http://purl.org/dc/elements/1.1/"
   xmlns:cc="http://creativecommons.org/ns#"
   xmlns:rdf="http://www.w3.org/1999/02/22-rdf-syntax-ns#"
   xmlns:svg="http://www.w3.org/2000/svg"
   xmlns="http://www.w3.org/2000/svg"
   xmlns:sodipodi="http://sodipodi.sourceforge.net/DTD/sodipodi-0.dtd"
   xmlns:inkscape="http://www.inkscape.org/namespaces/inkscape"
   width="14"
   height="14"
   id="svg2"
   version="1.1"
   inkscape:version="0.91 r13725"
   sodipodi:docname="h_topo_wood_shield.svg">
  <defs
     id="defs13" />
  <sodipodi:namedview
     pagecolor="#ffffff"
     bordercolor="#666666"
     borderopacity="1"
     objecttolerance="10"
     gridtolerance="10"
     guidetolerance="10"
     inkscape:pageopacity="0"
     inkscape:pageshadow="2"
     inkscape:window-width="1920"
     inkscape:window-height="1006"
     id="namedview11"
     showgrid="false"
     inkscape:zoom="26.041379"
     inkscape:cx="-0.47443771"
     inkscape:cy="7.2771817"
     inkscape:window-x="1920"
     inkscape:window-y="0"
     inkscape:window-maximized="1"
     inkscape:current-layer="g5" />
  <metadata
     id="metadata2975">image/svg+xmlen<rdf:RDF>
  <cc:Work
     rdf:about="">
    <dc:format>image/svg+xml</dc:format>
    <dc:type
       rdf:resource="http://purl.org/dc/dcmitype/StillImage" />
    <dc:title />
  </cc:Work>
</rdf:RDF>
</metadata>
  <g
     id="g5"
     style="fill:#2f2f2f;fill-opacity:1;stroke:#fefefe;stroke-width:65.80000305;stroke-linecap:butt;stroke-linejoin:round;stroke-miterlimit:4;stroke-dasharray:none;stroke-opacity:0.68181817"
     transform="translate(7.413675,-566)">
    <title
       id="title7">Layer 1</title>
    <path
       sodipodi:type="inkscape:offset"
       inkscape:radius="1.1545699"
       inkscape:original="M 4.9394531 1.5390625 C 4.3049617 1.5390625 3.7621591 1.9014625 3.4902344 2.4453125 C 2.9010638 2.4906125 2.4472656 2.988955 2.4472656 3.578125 C 2.4472656 3.668725 2.4468664 3.7140475 2.4921875 3.8046875 C 2.174942 4.0766175 1.9941406 4.48429 1.9941406 4.9375 C 1.9941406 5.11878 2.0386634 5.25622 2.0839844 5.4375 C 2.0386634 5.57346 1.9941406 5.70778 1.9941406 5.84375 C 1.9941406 5.97971 2.0386634 6.1159931 2.0839844 6.2519531 C 1.7667386 6.4332431 1.5410156 6.795235 1.5410156 7.203125 C 1.5410156 7.746975 1.948338 8.2019306 2.4921875 8.3378906 C 2.4468665 8.3831906 2.4472656 8.4738031 2.4472656 8.5644531 C 2.4472656 9.1989431 2.9455867 9.6972656 3.5800781 9.6972656 C 3.9879653 9.6972656 4.3050449 9.3793419 4.4863281 9.1074219 C 4.5769701 12.687762 3.5801198 11.554926 3.3535156 12.416016 L 6.5253906 12.416016 C 6.5253906 12.098776 5.7097822 12.189385 5.6191406 10.421875 C 5.1659323 9.968665 5.1210938 9.515625 5.1210938 9.515625 L 5.3925781 9.3339844 C 5.7551447 9.0620544 6.2983463 8.4723806 6.796875 7.8378906 C 6.2983463 7.6112906 5.9359458 6.9770081 5.890625 6.7050781 C 5.890625 6.7050781 6.97923 5.4371869 7.3417969 5.0292969 C 7.3871169 4.9386969 7.4316406 4.8933744 7.4316406 4.8027344 C 6.7065073 4.5308044 6.7070312 4.03125 6.7070312 4.03125 L 7.3417969 3.3066406 C 7.3871169 2.7174706 6.7985119 2.3097406 6.390625 2.4003906 C 6.0733792 1.9018606 5.5739445 1.5390625 4.9394531 1.5390625 z M 9.0175781 1.5390625 C 9.0175781 1.5390625 8.0208529 3.1697519 7.2050781 4.0761719 C 7.2050781 4.1667719 7.5225562 4.5300931 8.0664062 4.4394531 C 8.0664062 4.4847531 8.1128821 4.5757736 8.1582031 4.6210938 C 7.7049948 5.3009136 7.1157577 5.97955 6.390625 6.75 C 6.390625 6.8406 6.707264 7.6125225 7.5683594 7.4765625 C 7.2964346 7.8844425 6.2989528 9.2440556 5.6191406 9.6972656 C 5.6191406 9.7878656 6.2537399 10.693036 7.1601562 10.285156 C 7.3721651 10.850511 7.9158038 11.162891 8.5097656 10.996094 C 8.4553326 12.212349 7.2531914 11.972996 7.3417969 12.416016 L 10.378906 12.416016 C 10.01634 12.008136 9.5179771 12.279903 9.4726562 11.101562 L 9.4726562 10.974609 C 10.040394 11.121625 10.618238 10.759617 10.832031 10.332031 C 11.647806 10.649271 12.236287 10.195786 12.462891 9.6972656 C 12.145645 9.4706556 11.329404 8.6997494 10.740234 7.9746094 C 10.740234 7.9746094 10.015392 8.7911381 9.1542969 8.1113281 C 8.6104473 8.2472881 8.2484873 8.0660751 7.9765625 7.8847656 C 8.3391289 8.0660556 8.7460523 8.0199769 8.9726562 7.7480469 C 9.4711852 8.1106169 10.014786 8.0200144 10.332031 7.5214844 C 11.283768 7.6574444 11.556242 6.842195 11.601562 6.796875 C 10.92175 6.253025 10.015625 4.9824219 10.015625 4.9824219 C 9.8343416 5.3449919 9.3355803 5.3012469 9.1542969 5.0292969 C 8.8370513 5.1198969 8.566049 5.0289363 8.3847656 4.8476562 C 8.6113698 4.9836162 8.8816157 4.9370594 9.0175781 4.7558594 C 9.3801447 5.0730994 9.9707031 4.8473034 9.9707031 4.4394531 C 10.469232 4.6660633 10.832031 4.1668119 10.832031 4.0761719 C 10.061577 3.1697519 9.0175781 1.5390625 9.0175781 1.5390625 z "
       style="fill:#ffffff;fill-opacity:1;stroke:none;color:#000000;clip-rule:nonzero;display:inline;overflow:visible;visibility:visible;opacity:1;isolation:auto;mix-blend-mode:normal;color-interpolation:sRGB;color-interpolation-filters:linearRGB;solid-color:#000000;solid-opacity:1;fill-rule:nonzero;stroke-width:0.78325456;stroke-linecap:butt;stroke-linejoin:miter;stroke-miterlimit:4;stroke-dasharray:none;stroke-dashoffset:0;stroke-opacity:1;marker:none;filter-blend-mode:normal;filter-gaussianBlur-deviation:0;color-rendering:auto;image-rendering:auto;shape-rendering:auto;text-rendering:auto;enable-background:accumulate"
       id="path4164"
       d="m 4.9394531,0.38476562 c -0.9234286,0 -1.6943369,0.52260868 -2.1992187,1.23242188 C 1.930206,1.9759573 1.2929687,2.6565401 1.2929688,3.578125 c 0,0.027329 0.042248,0.1551304 0.052734,0.2324219 C 1.1551477,4.187797 0.83984375,4.5110464 0.83984375,4.9375 c 0,0.2348773 0.0448837,0.3477096 0.0800781,0.4941406 -0.0344651,0.1313496 -0.0800781,0.2047703 -0.0800781,0.4121094 0,0.029439 0.0106098,0.030785 0.0117188,0.058594 -0.27240429,0.3734671 -0.46484375,0.8024725 -0.46484375,1.3007812 0,0.8004356 0.48442456,1.3825869 1.08984375,1.796875 0.2026989,0.8854974 0.8565317,1.538365 1.7539063,1.703125 0.00188,0.0032 -0.033865,0.288124 -0.017578,0.271484 0.05513,-0.05632 0.1024052,-0.07978 -0.1464844,0.0625 -0.2488895,0.142278 -0.7045495,0.608932 -0.8300781,1.085938 a 1.1546853,1.1546853 0 0 0 1.1171875,1.447265 l 3.171875,0 a 1.1546853,1.1546853 0 0 0 0.4082032,-0.07617 1.1546853,1.1546853 0 0 0 0.4082031,0.07617 l 3.0371091,0 a 1.1546853,1.1546853 0 0 0 0.863282,-1.921874 c -0.05605,-0.06305 -0.04147,-0.01532 -0.0957,-0.06641 0.07191,-0.05904 0.128643,-0.130068 0.19336,-0.197265 0.358649,-0.0039 0.744009,0.116377 1.037109,-0.02734 0.55473,-0.272011 0.922188,-0.709681 1.136719,-1.181641 A 1.1546853,1.1546853 0 0 0 13.134766,8.7578125 C 13.092729,8.7277855 12.6264,8.2394855 12.255859,7.8710938 12.354477,7.748838 12.465235,7.6176 12.517578,7.5273438 c 0.03336,-0.057527 0.05322,-0.097746 0.06836,-0.1269532 a 1.1546853,1.1546853 0 0 0 0.01172,-0.021484 c 0,0 0,-0.00195 0,-0.00195 a 1.1546853,1.1546853 0 0 0 -0.27539,-1.4824219 c -0.21348,-0.1707835 -0.446701,-0.4921692 -0.757813,-0.875 0.03781,-0.042684 0.09604,-0.080964 0.128906,-0.125 0.056,-0.075031 0.105787,-0.1505846 0.15625,-0.2519531 0.05046,-0.1013685 0.136719,-0.1699659 0.136719,-0.5664062 A 1.1546853,1.1546853 0 0 0 11.710938,3.328125 C 11.049705,2.5502019 9.9902344,0.91601562 9.9902344,0.91601562 A 1.1546853,1.1546853 0 0 0 8.0332031,0.9375 c 0,0 -0.3605423,0.4866198 -0.5078125,0.7128906 C 7.4114018,1.5725696 7.2496115,1.5944032 7.1210938,1.5410156 6.6204114,0.91422906 5.8817344,0.38476562 4.9394531,0.38476562 Z"
       transform="translate(-7.413675,566)" />
  </g>
</svg>

<svg width="14" height="14" viewBox="0 0 14 14" fill="none" xmlns="http://www.w3.org/2000/svg">
<path d="M4.93945 0.384766C4.01602 0.384766 3.24512 0.907374 2.74023 1.61719C1.93021 1.97596 1.29297 2.65654 1.29297 3.57812C1.29297 3.60545 1.33522 3.73326 1.3457 3.81055C1.15515 4.1878 0.839844 4.51105 0.839844 4.9375C0.839844 5.17238 0.884727 5.28521 0.919922 5.43164C0.885457 5.56299 0.839844 5.63641 0.839844 5.84375C0.839844 5.87319 0.850454 5.87454 0.851562 5.90234C0.579158 6.27581 0.386719 6.70482 0.386719 7.20312C0.386719 8.00356 0.871143 8.58571 1.47656 9C1.67926 9.8855 2.33309 10.5384 3.23047 10.7031C3.23235 10.7063 3.1966 10.9912 3.21289 10.9746C3.26802 10.9183 3.3153 10.8948 3.06641 11.0371C2.81752 11.1794 2.36186 11.646 2.23633 12.123C2.19159 12.2939 2.18662 12.4727 2.2218 12.6457C2.25699 12.8188 2.33139 12.9814 2.43929 13.1212C2.54719 13.261 2.68572 13.3742 2.84421 13.452C3.0027 13.5299 3.17693 13.5703 3.35352 13.5703H6.52539C6.66494 13.5698 6.80325 13.544 6.93359 13.4941C7.06394 13.544 7.20224 13.5698 7.3418 13.5703H10.3789C10.6015 13.5704 10.8194 13.5061 11.0064 13.3851C11.1933 13.2642 11.3413 13.0918 11.4325 12.8888C11.5237 12.6857 11.5543 12.4605 11.5205 12.2405C11.4868 12.0204 11.3901 11.8148 11.2422 11.6484C11.1861 11.5854 11.2007 11.6331 11.1465 11.582C11.2184 11.523 11.2751 11.452 11.3398 11.3848C11.6985 11.3809 12.0839 11.5011 12.377 11.3574C12.9317 11.0854 13.2991 10.6477 13.5137 10.1758C13.6247 9.93215 13.6476 9.65751 13.5785 9.39885C13.5094 9.14019 13.3525 8.91359 13.1348 8.75781C13.0927 8.72779 12.6264 8.23949 12.2559 7.87109C12.3545 7.74884 12.4652 7.6176 12.5176 7.52734C12.5509 7.46982 12.5708 7.4296 12.5859 7.40039C12.5899 7.39327 12.5938 7.38611 12.5977 7.37891C12.5977 7.37891 12.5977 7.37696 12.5977 7.37696C12.737 7.13787 12.7859 6.85668 12.7353 6.58459C12.6848 6.31251 12.5382 6.06762 12.3223 5.89453C12.1088 5.72375 11.8756 5.40237 11.5645 5.01953C11.6023 4.97685 11.6605 4.93857 11.6934 4.89453C11.7494 4.8195 11.7991 4.74395 11.8496 4.64258C11.9001 4.54121 11.9863 4.47262 11.9863 4.07618C11.9862 3.80204 11.8886 3.53688 11.7109 3.32812C11.0497 2.5502 9.99023 0.916016 9.99023 0.916016C9.88456 0.751355 9.73879 0.616246 9.56659 0.523369C9.39439 0.430492 9.20141 0.382893 9.00577 0.385041C8.81013 0.387188 8.61825 0.439012 8.44813 0.535647C8.27801 0.632282 8.13523 0.77056 8.0332 0.9375C8.0332 0.9375 7.67266 1.42412 7.52539 1.65039C7.4114 1.57257 7.24961 1.5944 7.12109 1.54102C6.62041 0.914229 5.88173 0.384766 4.93945 0.384766Z" fill="white"/>
</svg>
